components/states_menu/options_container/trash_can.svg

<?xml version="1.0" encoding="UTF-8" standalone="no"?>
<!-- Created with Inkscape (http://www.inkscape.org/) -->

<svg
   width="80"
   height="80"
   viewBox="0 0 80 80"
   version="1.1"
   id="svg1"
   inkscape:version="1.4.1 (1:1.4.1+202503302257+93de688d07)"
   sodipodi:docname="trash_can.svg"
   inkscape:export-filename="maker.png"
   inkscape:export-xdpi="96"
   inkscape:export-ydpi="96"
   xmlns:inkscape="http://www.inkscape.org/namespaces/inkscape"
   xmlns:sodipodi="http://sodipodi.sourceforge.net/DTD/sodipodi-0.dtd"
   xmlns="http://www.w3.org/2000/svg"
   xmlns:svg="http://www.w3.org/2000/svg">
  <sodipodi:namedview
     id="namedview1"
     pagecolor="#ffffff"
     bordercolor="#000000"
     borderopacity="0.25"
     inkscape:showpageshadow="2"
     inkscape:pageopacity="0.0"
     inkscape:pagecheckerboard="0"
     inkscape:deskcolor="#d1d1d1"
     inkscape:document-units="px"
     showgrid="true"
     inkscape:zoom="11.44568"
     inkscape:cx="47.44148"
     inkscape:cy="30.885015"
     inkscape:window-width="1920"
     inkscape:window-height="1011"
     inkscape:window-x="1920"
     inkscape:window-y="32"
     inkscape:window-maximized="1"
     inkscape:current-layer="layer1">
    <inkscape:grid
       id="grid1"
       units="px"
       originx="0"
       originy="0"
       spacingx="1"
       spacingy="1"
       empcolor="#0099e5"
       empopacity="0.30196078"
       color="#0099e5"
       opacity="0.14901961"
       empspacing="5"
       enabled="true"
       visible="true" />
  </sodipodi:namedview>
  <defs
     id="defs1" />
  <g
     inkscape:label="Layer 1"
     inkscape:groupmode="layer"
     id="layer1">
    <g
       id="g1"
       transform="matrix(0.20690853,0,0,0.20690853,-85.329022,63.618295)">
      <rect
         style="fill:#b1b1b1;stroke:#b1b1b1;stroke-width:1.02303;stroke-linecap:round;stroke-linejoin:round"
         id="rect2"
         width="239.84453"
         height="120"
         x="140.07773"
         y="140"
         rx="1.6585292"
         ry="12.539562" />
      <path
         sodipodi:type="star"
         style="fill:#b1b1b1;stroke:#b1b1b1;stroke-linecap:round;stroke-linejoin:round"
         id="path2"
         inkscape:flatsided="false"
         sodipodi:sides="3"
         sodipodi:cx="-80"
         sodipodi:cy="80"
         sodipodi:r1="178.88544"
         sodipodi:r2="89.442719"
         sodipodi:arg1="1.0471976"
         sodipodi:arg2="2.0943951"
         inkscape:rounded="0"
         inkscape:randomized="0"
         d="M 9.4427109,234.91934 -124.72136,157.45967 -258.88544,79.999991 -124.72136,2.5403337 9.4427261,-74.919328 9.4427185,80 Z"
         inkscape:transform-center-x="34.529587"
         transform="matrix(0.77210493,0,0,0.77210493,211.78682,138.2316)"
         inkscape:transform-center-y="3.4052132e-06" />
    </g>
    <g
       id="path1"
       style="fill:#d40000;stroke:#d40000">
      <path
         id="path4"
         style="fill:#d40000;stroke:#d40000;stroke-linecap:round;stroke-linejoin:round"
         d="M 12.753906,25 20,70 H 60 L 68.023438,25 Z M 25,30 c 1.661999,0 3,0.91515 3,2.052734 v 28.623047 c 0,1.137584 -1.338001,2.052735 -3,2.052735 -1.661999,0 -3,-0.915151 -3,-2.052735 V 32.052734 C 22,30.91515 23.338001,30 25,30 Z m 15,0 c 1.661999,0 3,0.91515 3,2.052734 v 28.623047 c 0,1.137584 -1.338001,2.052735 -3,2.052735 -1.661999,0 -3,-0.915151 -3,-2.052735 V 32.052734 C 37,30.91515 38.338001,30 40,30 Z m 15,0 c 1.661999,0 3,0.91515 3,2.052734 v 28.623047 c 0,1.137584 -1.338001,2.052735 -3,2.052735 -1.661999,0 -3,-0.915151 -3,-2.052735 V 32.052734 C 52,30.91515 53.338001,30 55,30 Z"
         sodipodi:nodetypes="cccccsssssssssssssssssssss" />
      <path
         style="fill:#d40000;stroke:#d40000;stroke-linecap:round;stroke-linejoin:round"
         d="m 12.753906,24 c -0.639795,-1.41e-4 -1.11519,0.592201 -0.976562,1.216797 l 7.246093,45 C 19.125123,70.674504 19.531134,71.000125 20,71 h 40 c 0.468866,1.24e-4 0.874877,-0.325496 0.976562,-0.783203 L 69,25.216797 C 69.138628,24.592201 68.663233,23.999859 68.023438,24 Z M 14,26 H 66.777344 L 59.197266,69 H 20.802734 Z"
         id="path5"
         sodipodi:nodetypes="cccccccccccccc" />
    </g>
    <rect
       style="fill:#d40000;stroke:#d40000;stroke-width:2;stroke-linecap:round;stroke-linejoin:round"
       id="rect1"
       width="57"
       height="2.949152"
       x="12"
       y="19" />
    <rect
       style="fill:#d40000;stroke:#d40000;stroke-width:1.7985;stroke-linecap:round;stroke-linejoin:round"
       id="rect3"
       width="18.186113"
       height="3.2014997"
       x="30.906944"
       y="14.798501" />
  </g>
</svg>

<?xml version="1.0" encoding="UTF-8" standalone="no"?>
<!-- Created with Inkscape (http://www.inkscape.org/) -->

<svg
   width="80"
   height="80"
   viewBox="0 0 80 80"
   version="1.1"
   id="svg1"
   inkscape:version="1.4 (1:1.4+202410161351+e7c3feb100)"
   sodipodi:docname="trash_can.svg"
   inkscape:export-filename="maker.png"
   inkscape:export-xdpi="96"
   inkscape:export-ydpi="96"
   xmlns:inkscape="http://www.inkscape.org/namespaces/inkscape"
   xmlns:sodipodi="http://sodipodi.sourceforge.net/DTD/sodipodi-0.dtd"
   xmlns="http://www.w3.org/2000/svg"
   xmlns:svg="http://www.w3.org/2000/svg">
  <sodipodi:namedview
     id="namedview1"
     pagecolor="#ffffff"
     bordercolor="#000000"
     borderopacity="0.25"
     inkscape:showpageshadow="2"
     inkscape:pageopacity="0.0"
     inkscape:pagecheckerboard="0"
     inkscape:deskcolor="#d1d1d1"
     inkscape:document-units="px"
     showgrid="true"
     inkscape:zoom="11.44568"
     inkscape:cx="33.506091"
     inkscape:cy="47.485165"
     inkscape:window-width="1920"
     inkscape:window-height="1011"
     inkscape:window-x="1920"
     inkscape:window-y="32"
     inkscape:window-maximized="1"
     inkscape:current-layer="layer1">
    <inkscape:grid
       id="grid1"
       units="px"
       originx="0"
       originy="0"
       spacingx="1"
       spacingy="1"
       empcolor="#0099e5"
       empopacity="0.30196078"
       color="#0099e5"
       opacity="0.14901961"
       empspacing="5"
       enabled="true"
       visible="true" />
  </sodipodi:namedview>
  <defs
     id="defs1" />
  <g
     inkscape:label="Layer 1"
     inkscape:groupmode="layer"
     id="layer1">
    <g
       id="g1"
       transform="matrix(0.20690853,0,0,0.20690853,-85.329022,63.618295)">
      <rect
         style="fill:#b1b1b1;stroke:#b1b1b1;stroke-width:1.02303;stroke-linecap:round;stroke-linejoin:round"
         id="rect2"
         width="239.84453"
         height="120"
         x="140.07773"
         y="140"
         rx="1.6585292"
         ry="12.539562" />
      <path
         sodipodi:type="star"
         style="fill:#b1b1b1;stroke:#b1b1b1;stroke-linecap:round;stroke-linejoin:round"
         id="path2"
         inkscape:flatsided="false"
         sodipodi:sides="3"
         sodipodi:cx="-80"
         sodipodi:cy="80"
         sodipodi:r1="178.88544"
         sodipodi:r2="89.442719"
         sodipodi:arg1="1.0471976"
         sodipodi:arg2="2.0943951"
         inkscape:rounded="0"
         inkscape:randomized="0"
         d="M 9.4427109,234.91934 -124.72136,157.45967 -258.88544,79.999991 -124.72136,2.5403337 9.4427261,-74.919328 9.4427185,80 Z"
         inkscape:transform-center-x="34.529587"
         transform="matrix(0.77210493,0,0,0.77210493,211.78682,138.2316)"
         inkscape:transform-center-y="3.4052132e-06" />
    </g>
    <g
       id="path1"
       style="fill:#d40000;stroke:#d40000">
      <path
         id="path4"
         style="fill:#d40000;stroke-linecap:round;stroke-linejoin:round;stroke:#d40000"
         d="M 10 25 L 20 70 L 60 70 L 70 25 L 10 25 z M 25 30 C 26.661999 30 28 30.91515 28 32.052734 L 28 60.675781 C 28 61.813365 26.661999 62.728516 25 62.728516 C 23.338001 62.728516 22 61.813365 22 60.675781 L 22 32.052734 C 22 30.91515 23.338001 30 25 30 z M 40 30 C 41.661999 30 43 30.91515 43 32.052734 L 43 60.675781 C 43 61.813365 41.661999 62.728516 40 62.728516 C 38.338001 62.728516 37 61.813365 37 60.675781 L 37 32.052734 C 37 30.91515 38.338001 30 40 30 z M 55 30 C 56.661999 30 58 30.91515 58 32.052734 L 58 60.675781 C 58 61.813365 56.661999 62.728516 55 62.728516 C 53.338001 62.728516 52 61.813365 52 60.675781 L 52 32.052734 C 52 30.91515 53.338001 30 55 30 z " />
      <path
         style="fill:#d40000;stroke-linecap:round;stroke-linejoin:round;stroke:#d40000"
         d="m 10,24 a 1.0001,1.0001 0 0 0 -0.9765625,1.216797 l 9.9999995,45 A 1.0001,1.0001 0 0 0 20,71 h 40 a 1.0001,1.0001 0 0 0 0.976562,-0.783203 l 10,-45 A 1.0001,1.0001 0 0 0 70,24 Z m 1.246094,2 h 57.507812 l -9.55664,43 H 20.802734 Z"
         id="path5" />
    </g>
    <rect
       style="fill:#d40000;stroke:#d40000;stroke-width:2;stroke-linecap:round;stroke-linejoin:round"
       id="rect1"
       width="62"
       height="3"
       x="9"
       y="19" />
    <rect
       style="fill:#d40000;stroke:#d40000;stroke-width:1.7985;stroke-linecap:round;stroke-linejoin:round"
       id="rect3"
       width="18.186113"
       height="3.2014997"
       x="30.906944"
       y="14.798501" />
  </g>
</svg>
